public/assets/icons/alert-red-error.svg

<svg viewBox="0 0 25 25" xmlns="http://www.w3.org/2000/svg"><path d="m17.51 3.77a9.72 9.72 0 0 0 -5-1.36 9.72 9.72 0 0 0 -5 1.36 10.09 10.09 0 0 0 -3.74 3.66 10 10 0 0 0 0 10.05 10.19 10.19 0 0 0 3.68 3.67 9.8 9.8 0 0 0 5 1.35 9.8 9.8 0 0 0 5-1.35 10.17 10.17 0 0 0 3.67-3.67 9.68 9.68 0 0 0 1.36-5 9.74 9.74 0 0 0 -1.36-5 10.06 10.06 0 0 0 -3.61-3.71zm-3.51 15.23a1 1 0 0 1 -1 1h-1a1 1 0 0 1 -1-1v-1a1 1 0 0 1 1-1h1a1 1 0 0 1 1 1zm0-5a1 1 0 0 1 -1 1h-1a1 1 0 0 1 -1-1v-8a1 1 0 0 1 1-1h1a1 1 0 0 1 1 1z" fill="#fff"/><path d="m12 17h1a1 1 0 0 1 1 1v1a1 1 0 0 1 -1 1h-1a1 1 0 0 1 -1-1v-1a1 1 0 0 1 1-1zm0-12h1a1 1 0 0 1 1 1v8a1 1 0 0 1 -1 1h-1a1 1 0 0 1 -1-1v-8a1 1 0 0 1 1-1zm.48-5a12.12 12.12 0 0 1 6.24 1.68 12.56 12.56 0 0 1 4.55 4.55 12.33 12.33 0 0 1 0 12.46 12.54 12.54 0 0 1 -4.55 4.54 12 12 0 0 1 -6.24 1.69 12 12 0 0 1 -6.24-1.69 12.54 12.54 0 0 1 -4.55-4.54 12 12 0 0 1 -1.69-6.23 12 12 0 0 1 1.69-6.23 12.56 12.56 0 0 1 4.55-4.55 12.12 12.12 0 0 1 6.24-1.68zm0 22.5a9.8 9.8 0 0 0 5-1.35 10.17 10.17 0 0 0 3.67-3.67 9.68 9.68 0 0 0 1.36-5 9.74 9.74 0 0 0 -1.36-5 10.06 10.06 0 0 0 -3.67-3.66 9.72 9.72 0 0 0 -5-1.36 9.72 9.72 0 0 0 -5 1.36 10.09 10.09 0 0 0 -3.71 3.61 10 10 0 0 0 0 10.05 10.19 10.19 0 0 0 3.68 3.67 9.8 9.8 0 0 0 5.03 1.35z" fill="#d63e04" fill-rule="evenodd"/><path d="m17.51 3.77a9.72 9.72 0 0 0 -5-1.36 9.72 9.72 0 0 0 -5 1.36 10.09 10.09 0 0 0 -3.74 3.66 10 10 0 0 0 0 10.05 10.19 10.19 0 0 0 3.68 3.67 9.8 9.8 0 0 0 5 1.35 9.8 9.8 0 0 0 5-1.35 10.17 10.17 0 0 0 3.67-3.67 9.68 9.68 0 0 0 1.36-5 9.74 9.74 0 0 0 -1.36-5 10.06 10.06 0 0 0 -3.61-3.71zm-3.51 15.23a1 1 0 0 1 -1 1h-1a1 1 0 0 1 -1-1v-1a1 1 0 0 1 1-1h1a1 1 0 0 1 1 1zm0-5a1 1 0 0 1 -1 1h-1a1 1 0 0 1 -1-1v-8a1 1 0 0 1 1-1h1a1 1 0 0 1 1 1z" fill="#fff"/></svg>

<svg id="Layer_1" data-name="Layer 1" xmlns="http://www.w3.org/2000/svg" viewBox="0 0 25 25"><defs><style>.cls-1{fill:#fff;}.cls-2{fill:#d63e04;fill-rule:evenodd;}</style></defs><title>alert-red-error-icon</title><path class="cls-1" d="M17.51,3.77a9.72,9.72,0,0,0-5-1.36,9.72,9.72,0,0,0-5,1.36A10.09,10.09,0,0,0,3.77,7.43a10,10,0,0,0,0,10.05,10.19,10.19,0,0,0,3.68,3.67,9.8,9.8,0,0,0,5,1.35,9.8,9.8,0,0,0,5-1.35,10.17,10.17,0,0,0,3.67-3.67,9.68,9.68,0,0,0,1.36-5,9.74,9.74,0,0,0-1.36-5A10.06,10.06,0,0,0,17.51,3.77ZM14,19a1,1,0,0,1-1,1H12a1,1,0,0,1-1-1V18a1,1,0,0,1,1-1h1a1,1,0,0,1,1,1Zm0-5a1,1,0,0,1-1,1H12a1,1,0,0,1-1-1V6a1,1,0,0,1,1-1h1a1,1,0,0,1,1,1Z"/><path class="cls-2" d="M12,17h1a1,1,0,0,1,1,1v1a1,1,0,0,1-1,1H12a1,1,0,0,1-1-1V18A1,1,0,0,1,12,17ZM12,5h1a1,1,0,0,1,1,1v8a1,1,0,0,1-1,1H12a1,1,0,0,1-1-1V6A1,1,0,0,1,12,5Zm.48-5a12.12,12.12,0,0,1,6.24,1.68,12.56,12.56,0,0,1,4.55,4.55,12.33,12.33,0,0,1,0,12.46,12.54,12.54,0,0,1-4.55,4.54,12,12,0,0,1-6.24,1.69,12,12,0,0,1-6.24-1.69,12.54,12.54,0,0,1-4.55-4.54A12,12,0,0,1,0,12.46,12,12,0,0,1,1.69,6.23,12.56,12.56,0,0,1,6.24,1.68,12.12,12.12,0,0,1,12.48,0Zm0,22.5a9.8,9.8,0,0,0,5-1.35,10.17,10.17,0,0,0,3.67-3.67,9.68,9.68,0,0,0,1.36-5,9.74,9.74,0,0,0-1.36-5,10.06,10.06,0,0,0-3.67-3.66,9.72,9.72,0,0,0-5-1.36,9.72,9.72,0,0,0-5,1.36A10.09,10.09,0,0,0,3.77,7.43a10,10,0,0,0,0,10.05,10.19,10.19,0,0,0,3.68,3.67A9.8,9.8,0,0,0,12.48,22.5Z"/><path class="cls-1" d="M17.51,3.77a9.72,9.72,0,0,0-5-1.36,9.72,9.72,0,0,0-5,1.36A10.09,10.09,0,0,0,3.77,7.43a10,10,0,0,0,0,10.05,10.19,10.19,0,0,0,3.68,3.67,9.8,9.8,0,0,0,5,1.35,9.8,9.8,0,0,0,5-1.35,10.17,10.17,0,0,0,3.67-3.67,9.68,9.68,0,0,0,1.36-5,9.74,9.74,0,0,0-1.36-5A10.06,10.06,0,0,0,17.51,3.77ZM14,19a1,1,0,0,1-1,1H12a1,1,0,0,1-1-1V18a1,1,0,0,1,1-1h1a1,1,0,0,1,1,1Zm0-5a1,1,0,0,1-1,1H12a1,1,0,0,1-1-1V6a1,1,0,0,1,1-1h1a1,1,0,0,1,1,1Z"/></svg>
